dist/svgs/switch.svg

<svg xmlns="http://www.w3.org/2000/svg" viewBox="0 0 512 512"><path d="M344 82q35 0 65.5 13.5T463 132t36.5 53.5T513 251t-13.5 65.5T463 370t-53.5 36.5T344 420q-37 0-71-16-13-5-25 0-35 18-76 18-35 0-66.5-13.5T51 372t-36.5-54T1 251t13.5-67T51 130t54.5-36.5T172 80q40 0 76 17 5 3 12.5 3t12.5-2q34-16 71-16zm129 170q0-26-9.5-50T435 160q-39-39-92-39-24 0-49 10 23 23 36.5 54t13.5 66q0 36-14 67.5T293 373q24 9 50 9 54 0 92-38 19-18 28.5-42t9.5-50z"/></svg>

<?xml version="1.0" encoding="UTF-8" standalone="no"?><svg   xmlns:svg="http://www.w3.org/2000/svg"   xmlns="http://www.w3.org/2000/svg"   version="1.1"   width="512"   height="512"   viewBox="0 0 512 512">  <path     d="M344 82Q379 82 409.5 95.5T463 132T499.5 185.5T513 251T499.5 316.5T463 370T409.5 406.5T344 420Q307 420 273 404Q260 399 248 404Q213 422 172 422Q137 422 105.5 408.5T51 372T14.5 318T1 251T14.5 184T51 130T105.5 93.5T172 80Q212 80 248 97Q253 100 260.5 100T273 98Q307 82 344 82zM473 252Q473 226 463.5 202T435 160Q396 121 343 121Q319 121 294 131Q317 154 330.5 185T344 251Q344 287 330 318.5T293 373Q317 382 343 382Q397 382 435 344Q454 326 463.5 302T473 252z"     id="switch" /></svg>
